X:207
T:Tommy Peoples'
T:Milkmaid, The
R:reel
D:Mair\'ead N\'i Mhaonaigh & Frankie Kennedy: Ceol Aduaidh
Z:id:hn-reel-207
M:C|
K:G
G2BG cABG|ADDE FGAF|G2BG cABG|1 Addc AGGF:|2 Addc AGG2||
|:g2dg egde|g2bg agef|g2dg egdB|1 cBAc BGG2:|2 cBAc BGGF||
P:Variations:
|:~G3B cABG|ADED (3EFG AF|~G3B cABG|1 Addc AGFA:|2 Addc AG (3Bcd||
|:g2dg egde|g2bg fgaf|g2dg egdB|1 cBAc BG (3Bcd:|2 cBAc BGAF||

